bundles/org.openhab.ui.habpanel/web/assets/icons/smarthome-set/power-button.svg

<?xml version="1.0" encoding="UTF-8" standalone="no"?>
<svg width="32px" height="32px" viewBox="0 0 32 32" version="1.1" xmlns="http://www.w3.org/2000/svg" xmlns:xlink="http://www.w3.org/1999/xlink" xmlns:sketch="http://www.bohemiancoding.com/sketch/ns">
    <!-- Generator: Sketch 3.3.2 (12043) - http://www.bohemiancoding.com/sketch -->
    <title>power button</title>
    <desc>Created with Sketch.</desc>
    <defs></defs>
    <g id="flatten" stroke="none" stroke-width="1" fill="none" fill-rule="evenodd" sketch:type="MSPage">
        <g id="z-copy" sketch:type="MSArtboardGroup" transform="translate(-100.000000, -132.000000)" fill="#000000">
            <g id="power-button" sketch:type="MSLayerGroup" transform="translate(100.000000, 132.000000)">
                <path d="M16,32 C24.836556,32 32,24.836556 32,16 C32,7.163444 24.836556,0 16,0 C7.163444,0 0,7.163444 0,16 C0,24.836556 7.163444,32 16,32 Z M16,30 C8.2680135,30 2,23.7319865 2,16 C2,8.2680135 8.2680135,2 16,2 C23.7319865,2 30,8.2680135 30,16 C30,23.7319865 23.7319865,30 16,30 Z M15,7.99754465 C15,7.44661595 15.4438648,7 16,7 C16.5522847,7 17,7.4463114 17,7.99754465 L17,15.0024554 C17,15.553384 16.5561352,16 16,16 C15.4477153,16 15,15.5536886 15,15.0024554 L15,7.99754465 Z M21.4589329,9.49999998 C21,9.97698687 21.1735519,10.8351 21.4589326,11.2029426 C22.4505994,12.4811551 23,14.065977 23,15.7447101 C23,19.7640218 19.8532802,23 16,23 C12.1467198,23 9,19.7640218 9,15.7447101 C9,14.0415493 9.56560927,12.4352187 10.5838497,11.1483389 C10.8725653,10.7834523 11,9.9670534 10.5,9.49999999 C10,9.03294657 9.01543812,9.9073372 9.01543812,9.9073372 C7.75536735,11.4998488 7,13.5315645 7,15.7447101 C7,20.8562656 11.0294373,25 16,25 C20.9705627,25 25,20.8562656 25,15.7447101 C25,13.5637007 24.2664101,11.5588905 23.0391328,9.97698685 C23.0391328,9.97698685 21.9178658,9.0230131 21.4589329,9.49999998 Z" sketch:type="MSShapeGroup"></path>
            </g>
        </g>
    </g>
</svg>

<svg width="32" height="32" xmlns="http://www.w3.org/2000/svg"><path d="M16 32c8.837 0 16-7.163 16-16S24.837 0 16 0 0 7.163 0 16s7.163 16 16 16Zm0-2C8.268 30 2 23.732 2 16S8.268 2 16 2s14 6.268 14 14-6.268 14-14 14ZM15 7.998c0-.551.444-.998 1-.998.552 0 1 .446 1 .998v7.004c0 .551-.444.998-1 .998-.552 0-1-.446-1-.998V7.998ZM21.459 9.5c-.459.477-.285 1.335 0 1.703A7.38 7.38 0 0 1 23 15.745C23 19.764 19.853 23 16 23s-7-3.236-7-7.255c0-1.703.566-3.31 1.584-4.597.289-.365.416-1.18-.084-1.648-.5-.467-1.485.407-1.485.407A9.38 9.38 0 0 0 7 15.745C7 20.856 11.03 25 16 25s9-4.144 9-9.255a9.381 9.381 0 0 0-1.96-5.768s-1.122-.954-1.581-.477Z" fill="#000" fill-rule="evenodd"/></svg>
